X:32
T:Larry
M:3/4
L:1/8
R:March
Q:250
N:My brother Larry has inspired my music over the years, so 
N:this is a tune for him.
K:Gdor
G3G FA|G4dg|~f2 edce|ef fF FG|
G3F FG|G3d de|~f2edce|d2dF DF:|
|:G3D FA|Gc d~f- fd|de fedc|ef dDFA|
FG GDFD|G2g2af|gfed zd|cA dDFD:||
